X:163
M:2/4
L:1/8
Q:1/4=130
K:Bb
|:(3FDB, (3GEC|(3FDB, (3GEC|GBAB|(c/B/A/G/) FE|\
|:gE/F/ GE|fD/E/ FD|Cc/d/ (e/d/c/B/)|\
(A/B/c/A/) FE|Df/g/ fD|EgCe|dc/B/ FA| B2B,2:|

